X: 33453
T: Rabbits Sitting In The Bush
R: polka
M: 2/4
K: Adorian
|:eA ed|BG Bd|eA ed|dB A2|
eA ed|BG B/c/d|ef gG|BA A2:|
|:ea ed|bg/b/ ag|ef/e/ dB|ba a2|
ea ed|bg/b/ ag|ef gG|BA A2:|

